static/app-icons/light-theme/AugmentedRemoteAssist.svg

<svg xmlns="http://www.w3.org/2000/svg" viewBox="0 0 32 32"><defs><linearGradient id="linear-gradient" x1="244.5" y1="-594.5" x2="251.5" y2="-594.5" gradientTransform="translate(-226.999 619)" gradientUnits="userSpaceOnUse"><stop offset=".001" stop-opacity="0"/><stop offset=".83"/></linearGradient><linearGradient id="linear-gradient-2" y1="32" x2="32" gradientUnits="userSpaceOnUse"><stop offset=".1" stop-color="#08bdba"/><stop offset=".9" stop-color="#0f62fe"/></linearGradient><style>.cls-1{fill:#fff}</style><mask id="mask" x="0" y="0" width="32" height="32" maskUnits="userSpaceOnUse"><path class="cls-1" d="M20 30H7a2 2 0 01-2-2V4a2 2 0 012-2h13v2H7v24h13v-6h2v6a2 2 0 01-2 2z"/><path transform="rotate(-90 21 24.5)" fill="url(#linear-gradient)" d="M17.5 22.5h7v4h-7z" id="Gradients_black_" data-name="Gradients (black)"/><circle class="cls-1" cx="13.5" cy="24.5" r="1.5"/></mask></defs><g id="Layer_2" data-name="Layer 2"><g id="Light_theme_icons" data-name="Light theme icons"><g mask="url(#mask)"><path fill="url(#linear-gradient-2)" d="M0 0h32v32H0z"/></g><path d="M27.447 9.105l-6-3a1 1 0 00-.894 0l-6 3A1 1 0 0014 10v7a1 1 0 00.553.895l6 3a1 1 0 00.894 0l6-3A1 1 0 0028 17v-7a1 1 0 00-.553-.895zM21 8.118L24.764 10 21 11.882 17.236 10zm-5 3.5l4 2v4.764l-4-2zm6 6.764v-4.764l4-2v4.764z" fill="#001d6c"/></g></g></svg>

<svg xmlns="http://www.w3.org/2000/svg" xmlns:xlink="http://www.w3.org/1999/xlink" viewBox="0 0 32 32"><defs><style>.cls-1{fill:#fff;}.cls-2{fill:url(#linear-gradient);}.cls-3{mask:url(#mask);}.cls-4{fill:url(#linear-gradient-2);}.cls-5{fill:#001d6c;}</style><linearGradient id="linear-gradient" x1="244.5" y1="-594.5" x2="251.5" y2="-594.5" gradientTransform="translate(-226.999 619)" gradientUnits="userSpaceOnUse"><stop offset="0.001" stop-opacity="0"/><stop offset="0.83"/></linearGradient><mask id="mask" x="0" y="0" width="32" height="32" maskUnits="userSpaceOnUse"><path class="cls-1" d="M20,30H7a2,2,0,0,1-2-2V4A2,2,0,0,1,7,2H20V4H7V28H20V22h2v6A2,2,0,0,1,20,30Z"/><g id="Gradients_black_" data-name="Gradients (black)"><rect class="cls-2" x="17.5" y="22.5" width="7" height="4" transform="translate(-3.5 45.501) rotate(-90)"/></g><circle class="cls-1" cx="13.5" cy="24.5" r="1.5"/></mask><linearGradient id="linear-gradient-2" y1="32" x2="32" gradientUnits="userSpaceOnUse"><stop offset="0.1" stop-color="#08bdba"/><stop offset="0.9" stop-color="#0f62fe"/></linearGradient></defs><g id="Layer_2" data-name="Layer 2"><g id="Light_theme_icons" data-name="Light theme icons"><g class="cls-3"><rect class="cls-4" width="32" height="32"/></g><path class="cls-5" d="M27.447,9.105l-6-3a1,1,0,0,0-.894,0l-6,3A1,1,0,0,0,14,10v7a1,1,0,0,0,.553.895l6,3a1,1,0,0,0,.894,0l6-3A1,1,0,0,0,28,17V10A1,1,0,0,0,27.447,9.105ZM21,8.118,24.764,10,21,11.882,17.236,10Zm-5,3.5,4,2v4.764l-4-2Zm6,6.764V13.618l4-2v4.764Z"/></g></g></svg>
